X:1500
T:Linen Cap, The
R:reel
N:"collected from Cronin"
B:"O'Neill's Dance Music of Ireland, 1500"
T: an caipin anairt.
Z:transcribed by John B. Walsh, walsh@math.ubc.ca 8/22/96
M:C|
L:1/8
K:A
g|a2 (ed) cdec|Bcde fBBg|a2 (ed) cdec|dfed cAAg|
a2 (ed) cdec|Bcde fefg|agae faec|dfed cA A||
B|cAEA cdec|Bcde fBBB|cAEA cdec|dfed cAAB|
cAEA cdec|Bcde fefg|agae faec|dfed cA A||


